!!!SOCIAL_FUNCTION:	songs of the elk sociey (dream societies)
!!!PDT:	1918

Specific Region: Dakotas, Minnesota, Montana, Nebraska
!!!REG: Dakotas and Montana
!!!LING_GROUP: Siouan
!!!LANG: Tone
!!!OTL@ENG: An Elk Am I
!!!ONM: No. 107
**kern
*Imale
*clefF4
*k[b-]
*M3/4
*MM126
4c
=1
4f
16f
8.c
4c
=2||
*M2/4
16d
8.c
4c
=3
[2c
=4||
*M3/4
2c]
4c
=5
4f
16f
8.c
4c
=6||
*M2/4
16d
8.c
4c
=7
[2c
=8
8c]
8A
4A
=9
4A
4A
=10
8A
8G
4G
=11
8A
8G
4G
=12
4F
4F
=13
8F
8C
[4C
=14
4C]
4F
=15
8F
8C
4C
=16
8D
8C
4C
=17
[2C
=18
2C]
=19
[2C
=20
4C]
4C
=21
[2C
=22
2C_
=23
4C]
4c
=24||
*M3/4
4f
(16f
8.c)
4c
=25||
*M2/4
(16d
8.c)
4c
=26
(2c
=27
8c
8A)
4A
=28
4A
4A
=29
(8A
8G)
4G
=30
(8A
8G)
4G
=31
2F
=32
(8F
8C)
[4C
=33
4C]
4F
=34
8F
8C
4C
=35
8D
8C
4C
=36
[2C
=37
2C]
=38
[2C
=39
4C]
4C
=40
2C
=41
4C
4r
==
*-
!!!CNT: Native American -- Sioux
!!!MRD: 1911/07//-1914///
!!!OCL: Frances Densmore
!!!YOR1: Teton Sioux Music, Bulletin 61,
!!!YOR2: Bureau of American Ethnology, Smithsonian Institution
!!!PPR: Government Printing Office
!!!PPP: Washington, D.C.
!!!PDT: 1918///
!!!ENC: Craig Stuart Sapp
!!!END: 2002/03/25/
!!!EEV: 2002/03/31/
!!!AGN: Society Song/Song of the Elk Society
!!!MPN@@SIO: Wi'yaka-wangzhi'la
!!!MPN@ENG: One Feather
!!!TXO: Teton Sioux
!!!MLC: Standing Rock Reservation, South Dakota, United States of America
!!!ARL: 45.9/-100.7#
!!!catalog: Catalogue No. 622
!!!PPG: 297
!!!EFL: 107/245
!!!VTS: 2544099034
